!!!COM:	Bach, Johann Sebastian
!!!CDT:	1685/02/21/-1750/07/28/
!!!OTL@@DE:	Herr Jesu Christ, wahr Mensch und Gott
!!!SCT:	BWV 127/5
!!!PC#:	284
!!!AGN:	chorale
**kern	**kern	**kern	**kern
*ICvox	*ICvox	*ICvox	*ICvox
*Ibass	*Itenor	*Ialto	*Isoprn
*I"Bass	*I"Tenor	*I"Alto	*I"Soprano
*clefF4	*clefGv2	*clefG2	*clefG2
*k[b-]	*k[b-]	*k[b-]	*k[b-]
*C:mix	*C:mix	*C:mix	*C:mix
*M4/4	*M4/4	*M4/4	*M4/4
*met(c)	*met(c)	*met(c)	*met(c)
*MM100	*MM100	*MM100	*MM100
8FL	4c	4a	4ff
8GJ	.	.	.
=1	=1	=1	=1
4A	4c	4a	4ff
8GL	8cL	4a	4ff
8FJ	8dJ	.	.
8cL	4e	4g	4ee
8B-J	.	.	.
4A	8fL	8aL	4cc
.	8eJ	8gJ	.
=2	=2	=2	=2
8B-L	8dL	4f	4dd
8AJ	8cJ	.	.
4G	4B-	4g	4ee
4F;	4c;	4a;	4ff;
4D	8dL	4a	4ff
.	8cJ	.	.
=3	=3	=3	=3
8GL	8B-L	8gL	4ee
8AJ	8cJ	8fJ	.
4B-	4d	8fL	4dd
.	.	8gJ	.
8EL	8eL	8gL	4cc
8F#J	8dJ	8aJ	.
4G	8dL	8dL	4b-
.	8c#J	8eJ	.
=4	=4	=4	=4
8DL	8dL	4f	4a
8CnXJ	8AJ	.	.
4BB-	4B-	8eL	4g
.	.	8dJ	.
4AA;	4E;	4c#;	4a;
4D	4FnX	4d	4a
=5	=5	=5	=5
4E	4G	8dL	4g
.	.	8cnXJ	.
8FL	4F	4c	8aL
8GJ	.	.	8bJ
4A	8EL	8cL	4cc
.	8AJ	8fJ	.
4B	8AL	4f	4dd
.	8GJ	.	.
=6	=6	=6	=6
4c	4G	8fL	4cc
.	.	8eJ	.
4G	4G	4d	4b
4C;	4G;	4e;	4cc;
4F	4A	4f	4cc
=7	=7	=7	=7
4B-	4B-	4f	4dd
8AL	4B-	4b-	4ee
8GJ	.	.	.
8AL	8cL	8aL	4ff
8BJ	8dJ	8gJ	.
4c	4e	4g	4ee
=8	=8	=8	=8
8cL	8AL	4f#	4dd
16BL	16BL	.	.
16AJJ	16cJJ	.	.
8BL	8dL	4g#	4dd
8EJ	8eJ	.	.
4A;	4e;	4a;	4cc;
4AA	4e	4a	4cc
=9	=9	=9	=9
8DL	8fL	8aL	4b-X
8EJ	8cJ	8gnXJ	.
4FnX	4c	8gL	4a
.	.	8fnXJ	.
8BB-L	4B-	8fL	4dd
8CJ	.	8e-J	.
4D	4F#	8e-L	4cc
.	.	8dJ	.
=10	=10	=10	=10
4GG	4G	8dL	4b-
.	.	8enXJ	.
8AAL	4c	4fnX	4a
8BB-J	.	.	.
4C;	4c;	4e;	4g;
4c	4c	4e	4g
=11	=11	=11	=11
4F#	4c	8e-L	4a
.	.	8dJ	.
4F	4G	4d	4b
4E-	4G	4e-	4cc
4BB	8A-L	4f	4dd
.	8GJ	.	.
=12	=12	=12	=12
4C	4G	8fL	4cc
.	.	8e-J	.
4GG	4G	4d	4b
4C;	4G;	4e;	4cc;
==	==	==	==
*-	*-	*-	*-
!!!hum2abc: -Q ''
!!!title: @{PC#}. @{OTL@@DE}
!!!YOR1: 371 vierstimmige Choralges&auml;nge von Johann Sebastian Bach, 
!!!YOR2: 4th ed. by Alfred D&ouml;rffel (Leipzig: Breitkopf und H&auml;rtel, 
!!!YOR2: c.1875). 178 pp. Plate "V.A.10".  reprint: J.S. Bach, 371 Four-Part 
!!!YOR4: Chorales (New York: Associated Music Publishers, Inc., c.1940).
!!!SMS: B&H, 4th ed, Alfred D&ouml;rffel, c.1875, plate V.A.10
!!!EED:  Craig Stuart Sapp
!!!EEV:  2009/05/22
